svgs/sharp-light/object-union.svg

<svg xmlns="http://www.w3.org/2000/svg" viewBox="0 0 512 512"><!--! Font Awesome Pro 6.6.0 by @fontawesome - https://fontawesome.com License - https://fontawesome.com/license (Commercial License) Copyright 2024 Fonticons, Inc. --><path d="M128 352l32 0 0 32 0 96 0 32 32 0 288 0 32 0 0-32 0-288 0-32-32 0-96 0-32 0 0-32 0-96 0-32L320 0 32 0 0 0 0 32 0 320l0 32 32 0 96 0zM32 320L32 32l288 0 0 128 0 32 32 0 128 0 0 288-288 0 0-128 0-32-32 0L32 320z"/></svg>

<svg xmlns="http://www.w3.org/2000/svg" viewBox="0 0 512 512"><!--! Font Awesome Pro 6.4.2 by @fontawesome - https://fontawesome.com License - https://fontawesome.com/license (Commercial License) Copyright 2023 Fonticons, Inc. --><path d="M128 352h32v32 96 32h32H480h32V480 192 160H480 384 352V128 32 0H320 32 0V32 320v32H32h96zM32 320V32H320V160v32h32H480V480H192V352 320H160 32z"/></svg>
